src/assets/bold/lm-logo-sign-bold.svg

<svg width="24" height="24" viewBox="0 0 24 24" fill="none" xmlns="http://www.w3.org/2000/svg" fill="currentColor">
<path d="M11.2348 21.9978C10.8114 22.0162 10.391 21.9184 10.0192 21.715C9.64745 21.5115 9.33844 21.2102 9.1257 20.8437C8.22051 19.2845 8.84509 16.4037 10.8546 12.6675H2.66715C2.54989 12.6675 2.43472 12.6365 2.33323 12.5778C2.23174 12.519 2.1475 12.4346 2.08901 12.333C2.03051 12.2314 1.99981 12.1161 2 11.9989C2.00019 11.8816 2.03126 11.7665 2.09009 11.665C5.96658 4.98924 10.2368 2.0021 12.7487 2.0021C13.1718 1.98409 13.5917 2.08209 13.963 2.28551C14.3344 2.48894 14.643 2.79003 14.8556 3.15622C15.7608 4.71768 15.1362 7.59845 13.1266 11.3324H21.3186C21.4359 11.3324 21.5511 11.3634 21.6526 11.4221C21.7541 11.4809 21.8383 11.5653 21.8968 11.6669C21.9553 11.7685 21.986 11.8838 21.9858 12.001C21.9856 12.1183 21.9545 12.2334 21.8957 12.3349C18.0237 19.0129 13.7603 21.9978 11.2348 21.9978ZM12.3663 12.6675C10.0399 16.802 9.75481 19.2551 10.2866 20.1761C10.4043 20.3843 10.6328 20.6581 11.2393 20.6604C13.2421 20.6604 16.8606 17.9222 20.1396 12.6653L12.3663 12.6675ZM3.83259 11.3324H11.5946C13.9504 7.19791 14.2378 4.7471 13.7082 3.82154C13.5883 3.61561 13.3597 3.33953 12.7533 3.33726C10.7437 3.33726 7.12749 6.07773 3.84843 11.3324H3.83259Z" fill="black"/>
</svg>

<svg xmlns="http://www.w3.org/2000/svg" width="24" height="24" fill="currentColor" viewBox="0 0 24 24">
  <path d="M11.235 21.998a2.323 2.323 0 0 1-2.11-1.154c-.904-1.56-.28-4.44 1.73-8.177H2.667a.667.667 0 0 1-.577-1.002c3.877-6.676 8.147-9.663 10.659-9.663a2.322 2.322 0 0 1 2.107 1.154c.905 1.562.28 4.442-1.73 8.176h8.193a.667.667 0 0 1 .577 1.003c-3.872 6.678-8.136 9.663-10.661 9.663Zm1.131-9.33c-2.326 4.134-2.611 6.587-2.08 7.508.118.208.347.482.953.484 2.003 0 5.622-2.738 8.9-7.995l-7.773.003Zm-8.533-1.336h7.762c2.355-4.134 2.643-6.585 2.113-7.51-.12-.206-.348-.482-.955-.485-2.01 0-5.626 2.74-8.905 7.995h-.015Z"/>
</svg>
